X: 3
T: The Trip To Nenagh
R: reel
M: 4/4
L: 1/8
K: Dmix
dcAG FD~D2|A,DFA dcAG|Ad~d2 A=fed|c2Gc EcGc|dcAG FD~D2|A,DFA dcAG|Ad~d2 AdFd|GE^CE D2FA:||:~d2df adfa|geed ^cAce|d/c/dAG FDDC|EGAB =cecB|A2de fded|^cdef g2e/f/g|a2ea ^caec|1. dcAG FAD2:|2. dcAG FAEA|D8|]


Tune 831	Setting 13987

